X:1
T:Title
%%score ( 1 2 ) ( 3 4 )
L:1/8
M:6/8
K:Bb
V:1 treble nm="Grand Piano"
V:2 treble 
V:3 bass nm="Grand Piano"
V:4 bass 
V:1
 z3 z2[Q:1/4=81] [DF] | [DF]>[_D=E][=DF] [Fd][_Ec][DB] | [EG]>[E^F][EG] [Ge][=Fd][Ec] | %3
 [DB]>[CA][DB] [Fc][FB][Fc] |[M:5/8] [Fd]-[Fd]- [Fd]3 |[M:1/8] [DF] | %6
[M:3/4] [DF]>[_D=E] [=DF][Fd] [Fc][FB] | [EG]>[E^F] [EG][Ge] [Gd][Gc] | %8
 [FB]>[EA] [DB][Ec] [DB][CA] |[M:5/8] [DB]-[DB]- [DB]3 |[M:1/8] [DB] | %11
[M:3/4] [Fc]>[F=B] [Fc][Fe] [Fd][Fc] | [Fd]4- [Fd][FB] | [EG]>[E^F] [EG][=Ed] [Ec][EB] | %14
 A3 G2 [EF] | [DF]>[_D=E] [=DF][Fd] [Fc][FB] | [EG]>[E^F] [EG][Ge] [Gd][Gc] | %17
 [FB]>[EA] [DB][Ec] [DB][CA] |[M:13/8] [DB]-[DB]- [DB]3 z z z z z z z2 |] %19
V:2
 x6 | x6 | x6 | x6 |[M:5/8] x5 |[M:1/8] x |[M:3/4] x6 | x6 | x6 |[M:5/8] x5 |[M:1/8] x | %11
[M:3/4] x6 | x6 | x6 | E6 | x6 | x6 | x6 |[M:13/8] x13 |] %19
V:3
 z3 z2 [B,,B,] | [B,,B,]>[B,,B,][B,,B,] [B,,B,][B,,B,][B,,B,] | %2
 [E,B,]>[E,A,][E,B,] [E,B,][E,B,][E,G,] | F,>F,F, [F,A,][F,G,][F,A,] | %4
[M:5/8] [B,,B,]-[B,,B,]- [B,,B,]3 |[M:1/8] [B,,B,] | %6
[M:3/4] [B,,B,]>[B,,B,] [B,,B,][B,,B,] [C,A,][D,B,] | [E,B,]>[E,A,] [E,B,][C,C] [D,=B,][E,C] | %8
 [F,D]>[F,C] [F,B,][F,A,] [F,B,]F, |[M:5/8] [B,,F,]-[B,,F,]- [B,,F,]3 |[M:1/8] [B,,F,] | %11
[M:3/4] [F,A,]>[F,_A,] [F,=A,][F,C] [F,B,][F,A,] | [B,,B,]4- [B,,B,][D,B,] | %13
 [E,B,]>[E,A,] [E,B,][C,B,] [C,B,][C,C] | C4 z2 | [B,,B,]>[B,,B,] [B,,B,][B,,B,] [C,A,][D,B,] | %16
 [E,B,]>[E,A,] [E,B,][C,C] [D,=B,][E,C] | [F,D]>[F,C] [F,B,][F,A,] [F,B,]F, | %18
[M:13/8] [B,,F,]-[B,,F,]- [B,,F,]3 z z z z z z z2 |] %19
V:4
 x6 | x6 | x6 | x6 |[M:5/8] x5 |[M:1/8] x |[M:3/4] x6 | x6 | x6 |[M:5/8] x5 |[M:1/8] x | %11
[M:3/4] x6 | x6 | x6 | F,3- [F,B,]2 [F,A,] | x6 | x6 | x6 |[M:13/8] x13 |] %19

